X:1
T:’Tis for You and Me
T:’Tis for You and Me
T:Edwin Othello Excell
T:Eliza Edmunds Hewitt, 1894
T:Public Domain Courtesy of the Cyber Hymnal™
C:Edwin Othello Excell
Z:Public Domain
Z:Courtesy of the Cyber Hymnal™
%%score ( 1 2 ) ( 3 4 )
L:1/8
Q:1/4=96
M:3/4
K:E
V:1 treble 
V:2 treble 
V:3 bass 
V:4 bass 
V:1
 [EB]>[EB] | [EB]3 [EG] [EG]>[B,F] | [B,E]4 [B,E]>[B,D] | [B,F]4 [B,F]>[B,E] | [EG]4 [GB]>[GB] | %5
w: 1.~There’s a|par- don full and|sweet, ’Tis for|you, ’tis for|me; Bless- èd|
w: 2.~There’s a|peace be- yond all|thought, ’Tis for|you, ’tis for|me; There’s a|
w: 3.~There’s a|love no tongue e’er|told, ’Tis for|you, ’tis for|me; There’s a|
w: 4.~There’s a|help for ev- ery|day, ’Tis for|you, ’tis for|me; Strength and|
w: 5.~There’s a|robe of snow- y|white, ’Tis for|you, ’tis for|me; There’s a|
 [GB]3 [EG] [EG]>[B,F] | [B,E]4 [CF]>[FA] | [EG]4 [DF]2 | E4 ||"^Refrain" [GB]>[EG] | %10
w: rest at Je- sus’|feet, ’Tis for|you and|me.||
w: joy earth nev- er|brought, ’Tis for|you and|me.||
w: wealth of Hea- ven’s|gold, ’Tis for|you and|me.|All for|
w: bless- ing by the|way, ’Tis for|you and|me.||
w: home of glo- ry|bright, ’Tis for|you and|me.||
 [Ge]3 [Bd] [Ac]>[ce] | [GB]4 [GB]>[GB] | [FB]3 [FB] [Fc]>[Fc] | !fermata!d4 !fermata![Ge]>[Bd] | %14
w: ||||
w: ||||
w: you, if you be-|lieve, If sal-|va- tion you’ll re-|ceive; There’s a|
w: ||||
w: ||||
 [Ac]3 [GB] [Ac]>[ce] | [GB]4 E>[EF] | [EG]4 !fermata![EG]>[B,F] | [B,E]4 |] %18
w: ||||
w: ||||
w: wel- come, warm and|true, All for|you, all for|me.|
w: ||||
w: ||||
V:2
 x2 | x6 | x6 | x6 | x6 | x6 | x6 | x6 | E4 || x2 | x6 | x6 | x6 | (F2 A2) x2 | x6 | x4 E3/2 x/ | %16
 x6 | x4 |] %18
V:3
 [E,G,]>[E,G,] | [E,G,]3 [E,B,] [B,,B,]>[B,,A,] | [E,G,]4 [B,,G,]>[B,,F,] | %3
 [B,,A,]4 [E,A,]>[E,G,] | [E,B,]4 [E,E]>[E,E] | [E,E]3 [E,B,] [B,,B,]>[B,,A,] | %6
 [E,G,]4 [A,,A,]>[A,,C] | [B,,B,]4 [B,,A,]2 | [E,G,]4 || [E,E]>[E,B,] | [E,B,]3 [E,E] [E,E]>[E,E] | %11
 [E,E]4 [E,E]>[E,E] | [F,D]3 [F,D] [E,E]>[E,E] | (!fermata!D2 !fermata!F2) [E,E]>[E,E] | %14
 [E,E]3 [E,E] [E,E]>[E,E] | [E,E]4 [G,B,]>[A,C] | B,4 !fermata![B,,B,]>[B,,A,] | [E,G,]4 |] %18
V:4
 x2 | x6 | x6 | x6 | x6 | x6 | x6 | x6 | x4 || x2 | x6 | x6 | x6 | B,4 x2 | x6 | x6 | B,4 x2 | %17
 x4 |] %18

